X:1
T:What Have You Done for Jesus?
T:Kate C. Hinkle, 1911
T:What Have You Done for Jesus?
T:Public Domain
T:Public Domain
T:Public Domain
C:Kate C. Hinkle, 1911
Z:Public Domain
%%score ( 1 2 ) ( 3 4 )
L:1/8
M:6/4
K:Ab
V:1 treble 
V:2 treble 
V:3 bass 
V:4 bass 
V:1
 [Ec]2 [=D=B]2 [Ec]2 [CA]4 [_GA]2 | [FA]6 [DF]4 [DF]2 | [CE]4 [Ec]2 (c2 B2) [_DF]2 | %3
w: 1.~Have you done aught for|Je- sus Who|did so much * for|
w: 2.~What have you giv- en,|bro- ther? God|gave His on- * ly|
w: 3.~Have you left aught for|Je- sus, Loved|ones, hous- es * or|
 (E2 G2 F2 [EB]4) z2 | [Ec]2 [=D=B]2 [Ec]2 [CA]4 [_GA]2 | [FA]6 [DF]4 [B,F]2 | %6
w: He * * *|a roy- al pal- ace|And died for|
w: His * * *|life- time to suf- fer|For sin, by|
w: Great * * *|the prom- ise to us|A hun- dred-|
 ([CE]2 [Ec]2) [CE]2 ([B,D]2 [DB]2) [DG]2 | [CA]6- [CA]4 z2 | [Ec]2 [=D=B]2 [Ec]2 (C4 _G2) | %9
w: you * and me; * What|have *|you done? ~ What have|
w: death, * a- tone; * What|have *|you giv- en? What have|
w: fold * re- turn; * What|have *|you left? ~ What have|
 [FA]2 [=EG]2 [FA]2 [DF]4 [DF]2 | [CE]2 [Ec]2 [Ec]2 (c2 B2) [_DF]2 | (E2 G2 F2 [EB]4) z2 | %12
w: done? Oh, mea- sure your|life by His; He * tramped|world * * *|
w: giv’n? Your child- ren, your|tal- ents, all? Give * Him|gold- * * *|
w: left? The world and its|van- i- ties? He * left|heav- * * *|
 [Ec]2 [=D=B]2 [Ec]2 [CA]4 [_GA]2 | [FA]6 [DF]4 z2 | [=DB]2 [D=A]2 [DB]2 (F2 G2) [D_A]2 | %15
w: strang- er, And day by|day in|dang- er; Would you * do|
w: mo- ment, As with bright|gems you’ve|sown it, Your mon- * ey,|
w: glor- ies And joys, un-|dreamed of|by us; Leave all, * take|
 [DA]6 [DG]4 z2 | [CA]2 [DG]2 [CA]2 ([Ec]2 [=D=B]2) [Ec]2 | [_Ge]6 [Fd]4 [FB]2 | %18
w: my hear-|er, For Him or * one|of His? *|
w: and deeds|all, For His use * ev-|er- more. *|
w: cross dai-|ly, Fol- low Him * ev-|er- more. *|
 ([Ec]2 [CE]2) [Ed]2 [DB]4 [DG]2 | [CA]6- [CA]4 z2 |] %20
w: ||
w: ||
w: ||
V:2
 x12 | x12 | x6 =D4 x2 | B6- x6 | x12 | x12 | x12 | x12 | x6 A6 | x12 | x6 =D4 x2 | B6- x6 | x12 | %13
w: ||thee?|left|||||you||this|a||
w: ||Son,|whole|||||you||each|en||
w: ||lands?|is|||||you||a|en’s||
 x12 | x6 =D4 x2 | x12 | x12 | x12 | x12 | x12 |] %20
w: |that,||||||
w: |tho’ts||||||
w: |your||||||
V:3
 [A,,A,]2 [A,,A,]2 [A,,A,]2 [A,,E,]4 [C,A,]2 | [F,D]6 [D,A,]4 [D,A,]2 | %2
 [A,,A,]4 [A,,A,]2 [B,,A,]4 [B,,A,]2 | (G,2 B,2 A,2 [E,G,]4) z2 | %4
 [A,,A,]2 [A,,A,]2 [A,,A,]2 [A,,E,]4 [C,A,]2 | [D,D]6 [D,A,]4 [=D,A,]2 | %6
 [E,A,]4 [E,A,]2 [E,G,]4 E,2 | [A,,E,]6- [A,,E,]4 z2 | %8
 [A,,A,]2 [A,,A,]2 [A,,A,]2 [A,,E,]4 [C,A,]2 | [D,D]2 [D,D]2 [D,D]2 [D,A,]4 [D,A,]2 | %10
 [A,,A,]2 [A,,A,]2 [A,,A,]2 [B,,A,]4 [B,,A,]2 | (G,2 B,2 A,2 [E,G,]4) z2 | %12
 [A,,A,]2 [A,,A,]2 [A,,A,]2 [A,,E,]4 [C,A,]2 | [D,D]6 [D,A,]4 z2 | %14
 [B,,A,]2 [B,,A,]2 [B,,A,]2 [B,,A,]4 [B,,B,]2 | [E,B,]6 [E,B,]4 z2 | %16
 [A,,A,]2 [A,,E,]2 [A,,A,]2 A,4 A,2 | [C,A,]6 [D,A,]4 [D,A,]2 | [E,A,]4 [E,A,]2 [E,G,]4 E,2 | %19
 [A,,E,]6- [A,,E,]4 z2 |] %20
V:4
 x12 | x12 | x12 | E,6- x6 | x12 | x12 | x10 E,2 | x12 | x12 | x12 | x12 | E,6- x6 | x12 | x12 | %14
 x12 | x12 | x6 A,4 A,2 | x12 | x10 E,2 | x12 |] %20

